src/activities/smallnumbers/resource/dice1.svg

<?xml version="1.0" encoding="UTF-8" standalone="no"?>
<!-- Created with Inkscape (http://www.inkscape.org/) -->

<svg
   xmlns:dc="http://purl.org/dc/elements/1.1/"
   xmlns:cc="http://creativecommons.org/ns#"
   xmlns:rdf="http://www.w3.org/1999/02/22-rdf-syntax-ns#"
   xmlns:svg="http://www.w3.org/2000/svg"
   xmlns="http://www.w3.org/2000/svg"
   xmlns:sodipodi="http://sodipodi.sourceforge.net/DTD/sodipodi-0.dtd"
   xmlns:inkscape="http://www.inkscape.org/namespaces/inkscape"
   width="97.366165"
   height="98.64389"
   id="svg5070"
   sodipodi:version="0.32"
   inkscape:version="0.91 r13725"
   sodipodi:docname="dice1.svg"
   inkscape:export-filename="/home/franck/Gcompris/gartoon/level1.png"
   inkscape:export-xdpi="8.5762272"
   inkscape:export-ydpi="8.5762272"
   inkscape:output_extension="org.inkscape.output.svg.inkscape"
   version="1.0">
  <defs
     id="defs3" />
  <sodipodi:namedview
     inkscape:document-units="mm"
     id="base"
     pagecolor="#ffffff"
     bordercolor="#666666"
     borderopacity="1.0"
     inkscape:pageopacity="0.0"
     inkscape:pageshadow="2"
     inkscape:zoom="2.48125"
     inkscape:cx="43.653302"
     inkscape:cy="61.51663"
     inkscape:current-layer="layer1"
     inkscape:window-width="1880"
     inkscape:window-height="1060"
     inkscape:window-x="-2"
     inkscape:window-y="-3"
     showguides="true"
     inkscape:guide-bbox="true"
     showgrid="false"
     units="mm"
     fit-margin-top="0"
     fit-margin-left="0"
     fit-margin-right="0"
     fit-margin-bottom="0"
     inkscape:window-maximized="1" />
  <metadata
     id="metadata4">
    <rdf:RDF>
      <cc:Work
         rdf:about="">
        <dc:format>image/svg+xml</dc:format>
        <dc:type
           rdf:resource="http://purl.org/dc/dcmitype/StillImage" />
        <dc:title></dc:title>
        <dc:date>2015</dc:date>
        <dc:creator>
          <cc:Agent>
            <dc:title>Timothée Giet</dc:title>
          </cc:Agent>
        </dc:creator>
        <cc:license
           rdf:resource="http://creativecommons.org/licenses/by-sa/4.0/" />
      </cc:Work>
      <cc:License
         rdf:about="http://creativecommons.org/licenses/by-sa/4.0/">
        <cc:permits
           rdf:resource="http://creativecommons.org/ns#Reproduction" />
        <cc:permits
           rdf:resource="http://creativecommons.org/ns#Distribution" />
        <cc:requires
           rdf:resource="http://creativecommons.org/ns#Notice" />
        <cc:requires
           rdf:resource="http://creativecommons.org/ns#Attribution" />
        <cc:permits
           rdf:resource="http://creativecommons.org/ns#DerivativeWorks" />
        <cc:requires
           rdf:resource="http://creativecommons.org/ns#ShareAlike" />
      </cc:License>
    </rdf:RDF>
  </metadata>
  <g
     inkscape:label="Layer 1"
     inkscape:groupmode="layer"
     id="layer1"
     transform="translate(-28.519567,-31.271468)">
    <path
       style="fill:#991919;fill-opacity:1;fill-rule:evenodd;stroke:none;stroke-width:0.14504871pt;stroke-linecap:butt;stroke-linejoin:miter;stroke-opacity:1"
       d="m 34.780372,57.830835 c 0,0 11.696722,-14.741443 22.659989,-21.414233 6.804058,-4.141288 15.951038,-5.872434 23.923186,-4.690736 14.380136,2.131542 34.676383,10.228298 34.676383,10.228298 5.70412,1.631559 10.45059,5.041112 9.66764,13.386205 -1.34147,14.297736 -4.11664,24.915491 -8.0993,38.096534 -1.69655,5.614923 -3.95392,11.621797 -5.59572,15.806977 -1.9165,4.88545 -4.41931,9.22313 -5.99051,12.68874 -2.4131,5.32259 -9.215478,7.95988 -15.212322,7.89083 -8.856241,-0.10197 -25.963804,-4.73046 -39.482055,-11.46452 -6.092183,-3.0348 -10.353452,-6.78971 -12.137135,-11.7571 C 35.13841,95.317048 28.619211,85.838265 28.610229,73.486131 c -0.0049,-6.749315 2.571345,-10.760615 6.170143,-15.655296 z"
       id="rect5098"
       sodipodi:nodetypes="csscssssssssc"
       inkscape:connector-curvature="0" />
    <path
       style="fill:#e82727;fill-opacity:1;fill-rule:evenodd;stroke:none"
       d="m 78.820693,35.832519 c 14.578498,1.618664 22.535007,5.633913 34.703767,9.749147 6.32854,2.140187 11.68949,6.643208 5.39512,17.431563 l -17.44073,29.892848 c -3.801513,6.570316 -14.536046,7.869833 -21.313302,5.984166 L 42.879807,84.769058 C 36.102549,82.883392 29.287944,73.563364 33.286393,67.015212 38.930241,57.772436 48.247303,48.429216 57.161274,40.465041 62.581423,35.622421 71.906321,35.06481 78.820693,35.832519 Z"
       id="rect5076"
       sodipodi:nodetypes="csscccsss"
       inkscape:connector-curvature="0" />
    <path
       style="fill:#c21919;fill-opacity:1;fill-rule:evenodd;stroke:none"
       d="m 81.940306,127.16965 c -12.304348,-2.33251 -20.489881,-6.92706 -30.112842,-11.25699 -5.308705,-2.3887 -9.694104,-8.02673 -10.903474,-12.464 L 36.322702,89.898005 c -2.212432,-6.515546 1.55057,-6.332305 8.230006,-3.586737 l 36.551405,13.618433 c 5.696358,1.755889 10.580103,5.862699 10.586611,12.815849 0.003,3.18659 -0.04823,5.51888 -0.525041,9.83563 -0.315672,2.85785 -3.164793,5.73738 -9.225377,4.58847 z"
       id="path6555"
       sodipodi:nodetypes="cscsccsss"
       inkscape:connector-curvature="0" />
    <path
       style="fill:#c21919;fill-opacity:1;fill-rule:evenodd;stroke:none"
       d="m 109.60253,107.68634 c -1.68159,3.50032 -3.4759,8.83431 -5.78356,13.08712 -3.2447,5.97967 -9.789838,7.0191 -9.481878,2.86387 l 0.736375,-9.93563 c 0.513839,-6.93307 4.224366,-14.656364 6.360443,-18.188085 5.80781,-9.602381 12.93874,-20.285614 18.18368,-28.758611 2.06459,-3.335243 2.50471,0.536834 1.77361,3.151722 l -6.4042,22.905562 c -1.21092,4.331021 -3.94918,11.886422 -5.38447,14.874052 z"
       id="path7283"
       sodipodi:nodetypes="sssssssss"
       inkscape:connector-curvature="0" />
    <path
       style="fill:#ecc9c0;fill-opacity:1;fill-rule:evenodd;stroke:none"
       d="M 85.738281 50.820312 C 85.659737 50.826912 85.57648 50.847467 85.488281 50.882812 A 1.3153564 3.6045093 18.43036 0 0 85.472656 50.884766 A 1.3153564 3.6045093 18.43036 0 0 83.263672 54.423828 A 1.3153564 3.6045093 18.43036 0 0 83.619141 57.742188 L 83.818359 57.683594 C 83.871358 57.673782 83.925698 57.656359 83.982422 57.634766 L 84.15625 57.583984 A 1.3153564 3.6045093 18.43036 0 0 84.351562 57.433594 C 85.112748 56.904185 86.008596 55.668973 86.355469 54.523438 C 86.923624 52.647127 86.680814 50.741121 85.738281 50.820312 z M 17.460938 58.476562 C 15.801082 58.433281 14.442695 59.284811 14.519531 60.917969 A 4.7374224 2.791487 33.311629 0 0 14.513672 60.976562 A 4.7374224 2.791487 33.311629 0 0 18.332031 65.53125 A 4.7374224 2.791487 33.311629 0 0 22.925781 64.738281 L 22.931641 64.345703 C 22.943199 64.22026 22.94451 64.090424 22.9375 63.955078 L 22.941406 63.621094 A 4.7374224 2.791487 33.311629 0 0 22.826172 63.228516 C 22.440418 61.645996 21.157735 59.788341 19.763672 59.080078 C 19.004809 58.694533 18.20267 58.495903 17.460938 58.476562 z M 80 65.962891 C 79.921456 65.96949 79.838199 65.990045 79.75 66.025391 A 1.3153564 3.6045093 18.43036 0 0 79.734375 66.027344 A 1.3153564 3.6045093 18.43036 0 0 77.525391 69.566406 A 1.3153564 3.6045093 18.43036 0 0 77.880859 72.884766 L 78.072266 72.828125 C 78.130639 72.817964 78.19098 72.799954 78.253906 72.775391 L 78.417969 72.726562 A 1.3153564 3.6045093 18.43036 0 0 78.599609 72.585938 C 79.363652 72.061938 80.268263 70.818326 80.617188 69.666016 C 81.185343 67.789704 80.942533 65.883699 80 65.962891 z M 51.03125 71.150391 C 49.371428 71.10711 48.013068 71.956752 48.089844 73.589844 A 4.7374224 2.791487 33.311629 0 0 48.083984 73.648438 A 4.7374224 2.791487 33.311629 0 0 51.900391 78.203125 A 4.7374224 2.791487 33.311629 0 0 56.496094 77.412109 L 56.501953 77.013672 C 56.513086 76.89022 56.51462 76.76192 56.507812 76.628906 L 56.511719 76.294922 A 4.7374224 2.791487 33.311629 0 0 56.396484 75.900391 C 56.01073 74.317872 54.728048 72.460215 53.333984 71.751953 C 52.575121 71.366408 51.772982 71.169732 51.03125 71.150391 z M 35.728516 74.177734 C 34.068694 74.134454 32.710333 74.984096 32.787109 76.617188 A 4.7374224 2.791487 33.311629 0 0 32.78125 76.675781 A 4.7374224 2.791487 33.311629 0 0 36.597656 81.232422 A 4.7374224 2.791487 33.311629 0 0 41.193359 80.439453 L 41.199219 80.041016 C 41.210351 79.917564 41.211886 79.789264 41.205078 79.65625 L 41.208984 79.322266 A 4.7374224 2.791487 33.311629 0 0 41.09375 78.927734 C 40.707996 77.345215 39.425313 75.487564 38.03125 74.779297 C 37.272387 74.393752 36.470248 74.197075 35.728516 74.177734 z M 22.976562 76.705078 C 21.316741 76.6618 19.95838 77.511438 20.035156 79.144531 A 4.7374224 2.791487 33.311629 0 0 20.029297 79.203125 A 4.7374224 2.791487 33.311629 0 0 23.845703 83.757812 A 4.7374224 2.791487 33.311629 0 0 28.441406 82.966797 L 28.447266 82.568359 C 28.458398 82.444908 28.459933 82.316608 28.453125 82.183594 L 28.457031 81.849609 A 4.7374224 2.791487 33.311629 0 0 28.341797 81.455078 C 27.956043 79.872558 26.671407 78.014907 25.277344 77.306641 C 24.518481 76.921096 23.718295 76.724418 22.976562 76.705078 z M 73.625 82.421875 C 73.546456 82.428474 73.461246 82.449029 73.373047 82.484375 A 1.3153564 3.6045093 18.43036 0 0 73.357422 82.486328 A 1.3153564 3.6045093 18.43036 0 0 71.148438 86.027344 A 1.3153564 3.6045093 18.43036 0 0 71.503906 89.34375 L 71.699219 89.287109 C 71.75393 89.277284 71.810437 89.258766 71.869141 89.236328 L 72.041016 89.1875 A 1.3153564 3.6045093 18.43036 0 0 72.228516 89.042969 C 72.991797 88.517502 73.893814 87.275491 74.242188 86.125 C 74.810343 84.248687 74.567533 82.342683 73.625 82.421875 z M 52.705078 87.423828 C 51.045257 87.380548 49.684943 88.23019 49.761719 89.863281 A 4.7374224 2.791487 33.311629 0 0 49.755859 89.921875 A 4.7374224 2.791487 33.311629 0 0 53.574219 94.478516 A 4.7374224 2.791487 33.311629 0 0 58.169922 93.685547 L 58.175781 93.275391 C 58.18536 93.162794 58.184964 93.046312 58.179688 92.925781 L 58.185547 92.568359 A 4.7374224 2.791487 33.311629 0 0 58.070312 92.175781 C 57.685176 90.592821 56.400522 88.733957 55.005859 88.025391 C 54.246996 87.639846 53.44681 87.443169 52.705078 87.423828 z "
       transform="translate(28.519567,31.271468)"
       id="path1340" />
    <path
       style="fill:#f2dbd4;fill-opacity:1;fill-rule:evenodd;stroke:none"
       d="M 49.634766 27.810547 C 48.999756 27.831059 48.402068 27.924474 47.882812 28.099609 C 44.480469 29.247163 42.703978 32.602998 45.228516 34.640625 C 45.231933 34.643383 45.234848 34.645684 45.238281 34.648438 A 3.670374 6.2181113 80.133463 0 0 45.269531 34.681641 A 3.670374 6.2181113 80.133463 0 0 53.201172 35.273438 A 3.670374 6.2181113 80.133463 0 0 56.371094 30.298828 L 55.96875 29.929688 C 55.857617 29.812738 55.733912 29.701467 55.599609 29.591797 L 55.25 29.271484 A 3.670374 6.2181113 80.133463 0 0 54.75 29.023438 C 53.331416 28.236167 51.355475 27.754965 49.634766 27.810547 z "
       transform="translate(28.519567,31.271468)"
       id="path15083" />
  </g>
</svg>

<!--Created with Inkscape (http://www.inkscape.org/)--><svg xmlns:dc="http://purl.org/dc/elements/1.1/" xmlns:cc="http://creativecommons.org/ns#" xmlns:rdf="http://www.w3.org/1999/02/22-rdf-syntax-ns#" xmlns="http://www.w3.org/2000/svg" xmlns:sodipodi="http://sodipodi.sourceforge.net/DTD/sodipodi-0.dtd" xmlns:inkscape="http://www.inkscape.org/namespaces/inkscape" width="97.366165" height="98.64389" sodipodi:version="0.32" inkscape:version="0.91 r13725" sodipodi:docname="dice1.svg" inkscape:export-filename="/home/franck/Gcompris/gartoon/level1.png" inkscape:export-xdpi="8.5762272" inkscape:export-ydpi="8.5762272" inkscape:output_extension="org.inkscape.output.svg.inkscape" version="1.0"><sodipodi:namedview inkscape:document-units="mm" pagecolor="#ffffff" bordercolor="#666666" borderopacity="1.0" inkscape:pageopacity="0.0" inkscape:pageshadow="2" inkscape:zoom="2.48125" inkscape:cx="43.653302" inkscape:cy="61.51663" inkscape:current-layer="layer1" inkscape:window-width="1880" inkscape:window-height="1060" inkscape:window-x="-2" inkscape:window-y="-3" showguides="true" inkscape:guide-bbox="true" showgrid="false" units="mm" fit-margin-top="0" fit-margin-left="0" fit-margin-right="0" fit-margin-bottom="0" inkscape:window-maximized="1"/><metadata><rdf:RDF><cc:Work><dc:format>image/svg+xml</dc:format><dc:type rdf:resource="http://purl.org/dc/dcmitype/StillImage"/><dc:title/><dc:date>2015</dc:date><dc:creator><cc:Agent><dc:title>Timothée Giet</dc:title></cc:Agent></dc:creator><cc:license rdf:resource="http://creativecommons.org/licenses/by-sa/4.0/"/></cc:Work><cc:License rdf:about="http://creativecommons.org/licenses/by-sa/4.0/"><cc:permits rdf:resource="http://creativecommons.org/ns#Reproduction"/><cc:permits rdf:resource="http://creativecommons.org/ns#Distribution"/><cc:requires rdf:resource="http://creativecommons.org/ns#Notice"/><cc:requires rdf:resource="http://creativecommons.org/ns#Attribution"/><cc:permits rdf:resource="http://creativecommons.org/ns#DerivativeWorks"/><cc:requires rdf:resource="http://creativecommons.org/ns#ShareAlike"/></cc:License></rdf:RDF></metadata><g inkscape:label="Layer 1" inkscape:groupmode="layer"><path style="fill:#991919;fill-opacity:1;fill-rule:evenodd;stroke:none;stroke-width:.14504871pt;stroke-linecap:butt;stroke-linejoin:miter;stroke-opacity:1" d="M34.78 57.83s11.697-14.74 22.66-21.413c6.804-4.142 15.951-5.873 23.924-4.691 14.38 2.131 34.676 10.228 34.676 10.228 5.704 1.632 10.45 5.041 9.668 13.386-1.342 14.298-4.117 24.916-8.1 38.097-1.696 5.615-3.954 11.622-5.595 15.807-1.917 4.885-4.42 9.223-5.991 12.689-2.413 5.322-9.215 7.96-15.212 7.89-8.857-.102-25.964-4.73-39.482-11.464-6.093-3.035-10.354-6.79-12.137-11.757-4.053-11.285-10.572-20.764-10.58-33.116-.006-6.75 2.57-10.76 6.17-15.655z" sodipodi:nodetypes="csscssssssssc" inkscape:connector-curvature="0" transform="translate(-28.52 -31.271)"/><path style="fill:#e82727;fill-opacity:1;fill-rule:evenodd;stroke:none" d="M78.82 35.833c14.58 1.618 22.536 5.633 34.704 9.749 6.329 2.14 11.69 6.643 5.396 17.431l-17.441 29.893c-3.802 6.57-14.536 7.87-21.313 5.984L42.88 84.77c-6.777-1.887-13.592-11.207-9.594-17.755 5.644-9.243 14.961-18.586 23.875-26.55 5.42-4.843 14.745-5.4 21.66-4.632z" sodipodi:nodetypes="csscccsss" inkscape:connector-curvature="0" transform="translate(-28.52 -31.271)"/><path style="fill:#c21919;fill-opacity:1;fill-rule:evenodd;stroke:none" d="M81.94 127.17c-12.304-2.333-20.49-6.927-30.113-11.257-5.308-2.389-9.694-8.027-10.903-12.464l-4.601-13.551c-2.213-6.516 1.55-6.332 8.23-3.587L81.104 99.93c5.696 1.756 10.58 5.862 10.587 12.816.003 3.186-.049 5.518-.525 9.835-.316 2.858-3.165 5.738-9.226 4.589z" sodipodi:nodetypes="cscsccsss" inkscape:connector-curvature="0" transform="translate(-28.52 -31.271)"/><path style="fill:#c21919;fill-opacity:1;fill-rule:evenodd;stroke:none" d="M109.603 107.686c-1.682 3.5-3.476 8.835-5.784 13.087-3.245 5.98-9.79 7.02-9.482 2.864l.736-9.935c.514-6.933 4.225-14.657 6.36-18.188 5.809-9.603 12.94-20.286 18.185-28.759 2.064-3.335 2.504.537 1.773 3.152l-6.404 22.905c-1.21 4.331-3.95 11.887-5.384 14.874z" sodipodi:nodetypes="sssssssss" inkscape:connector-curvature="0" transform="translate(-28.52 -31.271)"/><path style="fill:#ecc9c0;fill-opacity:1;fill-rule:evenodd;stroke:none" d="M85.738 50.82a.87.87 0 0 0-.25.063 1.315 3.605 18.43 0 0-.015.002 1.315 3.605 18.43 0 0-2.21 3.539 1.315 3.605 18.43 0 0 .356 3.318l.2-.058a.956.956 0 0 0 .163-.05l.174-.05a1.315 3.605 18.43 0 0 .196-.15c.76-.53 1.657-1.765 2.003-2.91.569-1.877.326-3.783-.617-3.704zm-68.277 7.657c-1.66-.044-3.018.808-2.941 2.441a4.737 2.791 33.312 0 0-.006.059 4.737 2.791 33.312 0 0 3.818 4.554 4.737 2.791 33.312 0 0 4.594-.793l.006-.392c.011-.126.013-.256.006-.39l.003-.335a4.737 2.791 33.312 0 0-.115-.392c-.386-1.583-1.668-3.44-3.062-4.149a5.458 5.458 0 0 0-2.303-.603zM80 65.963a.87.87 0 0 0-.25.062 1.315 3.605 18.43 0 0-.016.002 1.315 3.605 18.43 0 0-2.209 3.54 1.315 3.605 18.43 0 0 .356 3.318l.191-.057a.95.95 0 0 0 .182-.053l.164-.048a1.315 3.605 18.43 0 0 .182-.141c.764-.524 1.668-1.768 2.017-2.92.568-1.876.326-3.782-.617-3.703zM51.031 71.15c-1.66-.043-3.018.807-2.941 2.44a4.737 2.791 33.312 0 0-.006.058 4.737 2.791 33.312 0 0 3.816 4.555 4.737 2.791 33.312 0 0 4.596-.79l.006-.4c.011-.123.013-.251.006-.384l.004-.334a4.737 2.791 33.312 0 0-.116-.395c-.385-1.582-1.668-3.44-3.062-4.148a5.454 5.454 0 0 0-2.303-.602zM35.73 74.178c-1.66-.044-3.019.806-2.942 2.44a4.737 2.791 33.312 0 0-.006.058 4.737 2.791 33.312 0 0 3.817 4.556 4.737 2.791 33.312 0 0 4.595-.793l.006-.398c.011-.123.013-.252.006-.385l.004-.334a4.737 2.791 33.312 0 0-.115-.394c-.386-1.583-1.669-3.44-3.063-4.149a5.454 5.454 0 0 0-2.302-.601zm-12.752 2.527c-1.66-.043-3.019.806-2.942 2.44a4.737 2.791 33.312 0 0-.006.058 4.737 2.791 33.312 0 0 3.817 4.555 4.737 2.791 33.312 0 0 4.595-.791l.006-.399c.011-.123.013-.251.006-.384l.004-.334a4.737 2.791 33.312 0 0-.115-.395c-.386-1.582-1.67-3.44-3.065-4.148a5.446 5.446 0 0 0-2.3-.602zm50.648 5.717a.881.881 0 0 0-.252.062 1.315 3.605 18.43 0 0-.016.002 1.315 3.605 18.43 0 0-2.209 3.541 1.315 3.605 18.43 0 0 .356 3.317l.195-.057a.96.96 0 0 0 .17-.05l.172-.05a1.315 3.605 18.43 0 0 .188-.144c.763-.525 1.665-1.768 2.013-2.918.568-1.876.326-3.782-.617-3.703zm-20.92 5.002c-1.66-.043-3.02.806-2.943 2.44a4.737 2.791 33.312 0 0-.006.058 4.737 2.791 33.312 0 0 3.818 4.557 4.737 2.791 33.312 0 0 4.596-.793l.006-.41c.01-.113.009-.23.004-.35l.006-.358a4.737 2.791 33.312 0 0-.116-.392c-.385-1.583-1.67-3.442-3.064-4.15a5.446 5.446 0 0 0-2.3-.602z"/><path style="fill:#f2dbd4;fill-opacity:1;fill-rule:evenodd;stroke:none" d="M49.635 27.81c-.635.021-1.233.114-1.752.29-3.403 1.147-5.179 4.503-2.654 6.54l.01.008a3.67 6.218 80.133 0 0 .03.034 3.67 6.218 80.133 0 0 7.932.591 3.67 6.218 80.133 0 0 3.17-4.974l-.402-.37a3.975 3.975 0 0 0-.37-.337l-.349-.32a3.67 6.218 80.133 0 0-.5-.249c-1.419-.787-3.395-1.268-5.115-1.212z"/></g></svg>
